img/payments/Advcash.svg

<svg width="108" height="108" viewBox="0 0 108 108" fill="none" xmlns="http://www.w3.org/2000/svg">
<path d="M2 54C2 25.2812 25.2812 2 54 2C82.7188 2 106 25.2812 106 54C106 82.7188 82.7188 106 54 106C25.2812 106 2 82.7188 2 54Z" fill="#0F2D38"/>
<path d="M81.4505 57.3389L77.4169 68.0198H72.6941L68.5645 57.3389H81.4505Z" fill="#00AF7E"/>
<path d="M81.4513 41.3164L77.4177 51.9972H58.0362L53.998 41.3164H81.4513Z" fill="#00AF7E"/>
<path d="M78.8389 78.6998L68.1282 78.6952L58.0351 51.9977L53.9968 41.3169L49.9632 51.9977L39.8656 78.6998H29.1504L39.4677 51.9977L43.5973 41.3169L48.2391 29.2998H59.7547L64.401 41.3169L68.5262 51.9977L78.8389 78.6998Z" fill="white"/>
<path d="M53.9975 41.3164L49.9639 51.9972H30.587L26.5488 41.3164H53.9975Z" fill="#00AF7E"/>
<path d="M60.0525 57.3389L64.0907 68.0198H30.587L26.5488 57.3389H60.0525Z" fill="#00AF7E"/>
<path d="M54 104.775C25.9577 104.775 3.225 82.0423 3.225 54H0.775C0.775 83.3954 24.6046 107.225 54 107.225V104.775ZM104.775 54C104.775 82.0423 82.0423 104.775 54 104.775V107.225C83.3954 107.225 107.225 83.3954 107.225 54H104.775ZM54 3.225C82.0423 3.225 104.775 25.9577 104.775 54H107.225C107.225 24.6046 83.3954 0.775 54 0.775V3.225ZM54 0.775C24.6046 0.775 0.775 24.6046 0.775 54H3.225C3.225 25.9577 25.9577 3.225 54 3.225V0.775Z" fill="white"/>
</svg>

<svg width="108" height="108" fill="none" xmlns="http://www.w3.org/2000/svg"><path d="M2 54C2 25.281 25.281 2 54 2s52 23.281 52 52-23.281 52-52 52S2 82.719 2 54z" fill="#0F2D38"/><path d="M81.45 57.339l-4.033 10.68h-4.723l-4.13-10.68h12.887zm.001-16.023l-4.033 10.681H58.036l-4.038-10.68h27.453z" fill="#00AF7E"/><path d="M78.839 78.7l-10.71-.005-10.094-26.697-4.038-10.681-4.034 10.68L39.866 78.7H29.15l10.318-26.702 4.13-10.681 4.64-12.017h11.516L64.4 41.317l4.125 10.68L78.84 78.7z" fill="#fff"/><path d="M53.998 41.316l-4.034 10.681H30.587l-4.038-10.68h27.449zm6.055 16.023l4.038 10.68H30.587l-4.038-10.68h33.504z" fill="#00AF7E"/><path d="M54 104.775C25.958 104.775 3.225 82.042 3.225 54H.775c0 29.395 23.83 53.225 53.225 53.225v-2.45zM104.775 54c0 28.042-22.733 50.775-50.775 50.775v2.45c29.395 0 53.225-23.83 53.225-53.225h-2.45zM54 3.225c28.042 0 50.775 22.733 50.775 50.775h2.45C107.225 24.605 83.395.775 54 .775v2.45zm0-2.45C24.605.775.775 24.605.775 54h2.45C3.225 25.958 25.958 3.225 54 3.225V.775z" fill="#fff"/></svg>
